img/eximchain/hero-logo.svg

<svg fill="none" height="21" viewBox="0 0 160 21" width="160" xmlns="http://www.w3.org/2000/svg"><path clip-rule="evenodd" d="m84.6988 0c-6.1557 0-9.672 4.34329-9.672 10.4249 0 6.092 3.5076 10.4267 9.658 10.425 4.9872 0 7.6248-2.895 8.21-6.3717l-.2934-.2883h-2.3443l-.2934.2883c-.5852 2.0284-2.0508 3.765-5.2736 3.765-4.3967 0-6.7409-3.185-6.7409-7.8183 0-4.63327 2.3442-7.81824 6.7409-7.81824 2.9294 0 4.6884 1.44662 5.2736 3.47498l.2934.29001h2.3582l.2935-.29001c-.5904-3.47498-3.5216-6.08164-8.21-6.08164zm-69.4597 20.5632h-14.945638l-.293462-.29v-19.694988l.293462-.288286h14.945638l.2935.290013v3.763261l-.2935.29002h-9.6703l-.29346.29001v2.89495l.29346.29001h9.0834l.2934.29001v3.765l-.2934.29h-9.0834l-.29346.29v3.185l.29346.29h9.6703l.2935.29v3.765zm20.5143 0h-2.6376l-.587-.29-5.2753-6.9517h-.2935l-5.2753 6.9517-.5852.29h-2.6377l-.2934-.29v-3.7564l5.2753-6.3871v-.29006l-4.9819-5.49644v-3.764988l.2935-.288286h2.6447l.5851.290013 4.9749 6.079911h.2935l4.9766-6.081638.5922-.288286h2.6377l.2934.290013v3.763261l-4.9836 5.50334v.28316l5.2753 6.3871v3.765zm3.8135 0h4.6832l.2987-.29v-19.693261l-.2917-.290013h-4.6902l-.2917.288286v19.694988zm31.9367 0h-4.6867l-.2934-.29v-9.2683h-.2935l-3.8098 9.2683-.2934.29h-3.8116l-.2917-.29-3.8115-9.2683h-.2917v9.2683l-.2935.29h-4.6901l-.2865-.29v-19.694988l.2865-.288286h5.5688l.2934.290013 5.2754 13.033361h.2934l5.2754-13.033361.3004-.290013h5.5688l.2935.290013v19.693261zm40.7304 0h-2.343l-.293-.29v-8.4l-.294-.2883h-9.6701l-.2934.2883v8.4l-.2935.29h-2.3442l-.2935-.29v-19.694988l.2935-.288286h2.3442l.2935.290013v8.113461l.2934.29001h9.6701l.294-.29001v-8.113461l.293-.290013h2.343l.293.290013v19.693261zm18.463 0h1.758l.293-.2917v-2.0284l-7.032-17.663161-.294-.290013h-2.638l-.293.288286-7.034 17.664888v2.0301l.293.29h1.759l.292-.29 1.759-4.345.587-.29h7.921l.586.29 1.746 4.345zm-6.746-15.92998h.294l3.223 8.11348-.294.2883h-6.154l-.293-.2883zm14.363 15.92998h-2.345l-.291-.29v-19.694988l.291-.288286h2.345l.297.288286v19.694988zm18.757 0h2.636l.293-.29v-19.693261l-.293-.290013h-2.345l-.291.288286v15.059988h-.294l-9.957-15.059988-.593-.288286h-2.638l-.294.288286v19.694988l.294.29h2.344l.294-.29v-15.05996h.3l9.957 15.05996z" fill="#fff" fill-rule="evenodd"/></svg>

<svg width="160" height="21" viewBox="0 0 160 21" fill="none" xmlns="http://www.w3.org/2000/svg">
<path fill-rule="evenodd" clip-rule="evenodd" d="M84.6988 0C78.5431 0 75.0268 4.34329 75.0268 10.4249C75.0268 16.5169 78.5344 20.8516 84.6848 20.8499C89.672 20.8499 92.3096 17.9549 92.8948 14.4782L92.6014 14.1899H90.2571L89.9637 14.4782C89.3785 16.5066 87.9129 18.2432 84.6901 18.2432C80.2934 18.2432 77.9492 15.0582 77.9492 10.4249C77.9492 5.79163 80.2934 2.60666 84.6901 2.60666C87.6195 2.60666 89.3785 4.05328 89.9637 6.08164L90.2571 6.37165H92.6153L92.9088 6.08164C92.3184 2.60666 89.3872 0 84.6988 0ZM15.2391 20.5632H0.293462L0 20.2732V0.578212L0.293462 0.289926H15.2391L15.5326 0.579939V4.3432L15.2391 4.63322H5.5688L5.27534 4.92323V7.81818L5.5688 8.10819H14.6522L14.9456 8.3982V12.1632L14.6522 12.4532H5.5688L5.27534 12.7432V15.9282L5.5688 16.2182H15.2391L15.5326 16.5082V20.2732L15.2391 20.5632ZM35.7534 20.5632H33.1158L32.5288 20.2732L27.2535 13.3215H26.96L21.6847 20.2732L21.0995 20.5632H18.4618L18.1684 20.2732V16.5168L23.4437 10.1297V9.83964L18.4618 4.3432V0.578212L18.7553 0.289926H21.4L21.9851 0.579939L26.96 6.65985H27.2535L32.2301 0.578212L32.8223 0.289926H35.46L35.7534 0.579939V4.3432L30.7698 9.84654V10.1297L36.0451 16.5168V20.2818L35.7534 20.5632ZM39.5669 20.5632H44.2501L44.5488 20.2732V0.579939L44.2571 0.289926H39.5669L39.2752 0.578212V20.2732L39.5669 20.5632ZM71.5036 20.5632H66.8169L66.5235 20.2732V11.0049H66.23L62.4202 20.2732L62.1268 20.5632H58.3152L58.0235 20.2732L54.212 11.0049H53.9203V20.2732L53.6268 20.5632H48.9367L48.6502 20.2732V0.578212L48.9367 0.289926H54.5055L54.7989 0.579939L60.0743 13.6133H60.3677L65.6431 0.579939L65.9435 0.289926H71.5123L71.8058 0.579939V20.2732L71.5036 20.5632ZM112.234 20.5632H109.891L109.598 20.2732V11.8732L109.304 11.5849H99.6339L99.3405 11.8732V20.2732L99.047 20.5632H96.7028L96.4093 20.2732V0.578212L96.7028 0.289926H99.047L99.3405 0.579939V8.6934L99.6339 8.98341H109.304L109.598 8.6934V0.579939L109.891 0.289926H112.234L112.527 0.579939V20.2732L112.234 20.5632ZM130.697 20.5632H132.455L132.748 20.2715V18.2431L125.716 0.579939L125.422 0.289926H122.784L122.491 0.578212L115.457 18.2431V20.2732L115.75 20.5632H117.509L117.801 20.2732L119.56 15.9282L120.147 15.6382H128.068L128.654 15.9282L130.4 20.2732L130.697 20.5632ZM123.951 4.63322H124.245L127.468 12.7467L127.174 13.035H121.02L120.727 12.7467L123.951 4.63322ZM138.314 20.5632H135.969L135.678 20.2732V0.578212L135.969 0.289926H138.314L138.611 0.578212V20.2732L138.314 20.5632ZM157.071 20.5632H159.707L160 20.2732V0.579939L159.707 0.289926H157.362L157.071 0.578212V15.6382H156.777L146.82 0.578212L146.227 0.289926H143.589L143.295 0.578212V20.2732L143.589 20.5632H145.933L146.227 20.2732V5.21324H146.527L156.484 20.2732L157.071 20.5632Z" fill="white"/>
</svg>
